X:1
T:Title
%%score { ( 1 2 ) | ( 3 4 ) }
L:1/8
Q:1/4=100
M:4/4
K:G
V:1 treble nm="Midi_20"
V:2 treble 
V:3 bass 
V:4 bass 
V:1
"^Whither, pilgrims, are you going""^Fanny Crosby\n(1820-1915)""^Pilgrim band (87. 87. 887)""^John Stainer\n(1840-1901)" B3 A G2 D2 | %1
 E2 A2 F2 D2 | G3 F E2 F2 | G2 [GB]2 [FA]2 z2 || B3 A G2 D2 | E2 A2 F2 D2 | d2 ^cB A2 B2 | %7
 E2 ^c2 d2 z2 || d2 B2 c2 A2 | B2 F2 G2 A2 | B2 Bc B2 AG | F2 B2 G2 E2 | B2 d2 AB c2 | B2 A2 G4 |] %14
V:2
 D3 C B,4 | C4 A,4 | D4 C4 | D6 z2 || D3 D D2 D2 | D2 ^C2 D2 D2 | D2 G2 A2 GF | E2 G2 F2 z2 || %8
 =F2 E2 E2 E2 | F2 F2 E2 ^D2 | E2 ^D2 EG FE | E2 ^D2 E2 E2 | G2 D2 E2 A2 | G2 F2 G4 |] %14
V:3
 B,3 A, G,2 D,2 | E,2 A,2 F,2 D,2 | G,3 F, E,2 F,2 | G,2 B,2 A,2 z2 || D3 C B,2 A,2 | %5
 B,2 A,2 A,2 F,2 | A,2 D2 D2 D2 | ^C2 E2 D2 z2 || %8
"^1. Whither, pilgrims, are you going,\nGoing each with staff in hand?\nWe are going on a journey,\nGoing at our King's command:\nOver hills and plains and valleys,\nWe are going to his palace,\nGoing to the better land.\n\n2. Fear ye not the way so lonely,\nYou a little, feeble band?\nNo, for friends unseen are near us,\nHoly angels round us stand;\nChrist, our Leader, walks beside us;\nHe will guard, and he will guide us,\nGuide us to the better land." A,2 ^G,2 A,2 E2 | %9
 ^D2 B,2 B,2 A,2 | G,2 A,2 B,2 CE | %11
"^3. Tell us, pilgrims, what you hope for\nIn that far-off better land.\nSpotless robes and crowns of glory\nFrom a Saviour's loving hand;\nWe shall drink of life's clear river,\nWe shall dwell with God for ever,\nIn that bright and better land.\n\n4. Pilgrims, may we travel with you\nTo that bright and better land?\nCome and welcome, come and welcome,\nWelcome to our pilgrim band.\nCome, O come, and do not leave us;\nChrist is waiting to receive us\nIn that bright and better land." B,2 B,2 B,2 G,2 | %12
 G,2 G,2 C2 E2 | D2 DC B,4 |] %14
V:4
 G,,3 A,, B,,2 G,,2 | C,2 A,,2 D,3 C, | B,,4 C,2 A,,2 | B,,2 G,,2 D,2 z2 || G,3 G, G,2 F,2 | %5
 G,2 A,2 D,2 D,E, | F,2 G,2 F,2 G,2 | A,2 A,,2 D,2 z2 || B,,2 E,2 A,,2 C,2 | B,,2 ^D,2 E,2 F,2 | %10
 G,2 F,2 G,2 A,2 | B,2 B,,2 E,2 E,2 | E,2 B,,2 C,2 A,,2 | D,2 D,2 G,,4 |] %14

